coreui/free/cil-mouth-slash.svg

<svg xmlns="http://www.w3.org/2000/svg" viewBox="0 0 512 512">
  <path fill="var(--ci-primary-color, currentColor)" d="M412.8,107.2c-24.067-32.09-47.141-46.4-74.814-46.4-22.54,0-44.048,13.373-62.2,38.674A180.547,180.547,0,0,0,260.753,124.8h-9.506A180.547,180.547,0,0,0,236.211,99.47c-18.149-25.3-39.657-38.674-62.2-38.674a71.222,71.222,0,0,0-36.672,9.918L161.4,94.768A38.732,38.732,0,0,1,174.014,92.8c25.175,0,46.513,39.864,51.993,53.8l3.97,10.195h41.106L282,156.771l3.988-10.146c5.49-13.965,26.828-53.829,52-53.829,11.874,0,27.007,3.992,49.213,33.6,18.589,24.786,65.674,80.813,82.549,100.8l-44.815,120.82q-.4.834-.819,1.663c-.865,1.722-1.785,3.409-2.73,5.078l23.309,23.309a149.913,149.913,0,0,0,8.023-14.038q.719-1.434,1.41-2.885l.306-.643L496,248.439V208.682C481.2,191.157,431.347,131.926,412.8,107.2Z" class="ci-primary"/>
  <path fill="var(--ci-primary-color, currentColor)" d="M387.305,320.678l45.426-102.962L331.8,172.6l-7.785,8.808c-.224.254-18.778,20.877-47.754,28.228L301.429,234.8a142.383,142.383,0,0,0,37.883-23.8L390.6,233.934l-27.564,62.475Z" class="ci-primary"/>
  <path fill="var(--ci-primary-color, currentColor)" d="M16,16V37.941l77.207,77.207C71.693,143.6,29.973,197.958,16,216.151V255.29L57.441,360.15l.432.994c.461.97.933,1.934,1.411,2.884A151.245,151.245,0,0,0,116.145,425.5a155.361,155.361,0,0,0,80.63,22.5h118.45a155.361,155.361,0,0,0,80.63-22.5q2.391-1.45,4.718-2.986L474.059,496H496V472.687L39.313,16ZM191.98,213.921l87.261,87.261a807.527,807.527,0,0,0-125.816,6.192l-31.615-66.39L183.98,209.9Zm-29.2-29.2L79.422,226.4l55.192,115.9,11.649-1.665A775.645,775.645,0,0,1,313,334.937l64.233,64.233a123.347,123.347,0,0,1-62,16.83H196.775c-45.934,0-88.675-26.033-108.893-66.328q-.45-.9-.887-1.8L42.214,234.555c14.147-18.422,52.059-67.825,73.836-96.564Z" class="ci-primary"/>
</svg>

<svg viewBox="0 0 512 512" xmlns="http://www.w3.org/2000/svg"><g><path d="M412.8 107.2c-24.07-32.09-47.15-46.4-74.82-46.4 -22.54 0-44.048 13.37-62.2 38.67v0c-5.7 8.01-10.73 16.48-15.04 25.32h-9.51v0c-4.32-8.84-9.35-17.32-15.04-25.33 -18.149-25.3-39.66-38.68-62.2-38.68v0c-12.9-.08-25.58 3.35-36.68 9.91l24.06 24.05v0c4.06-1.35 8.32-2.02 12.61-1.97 25.17 0 46.51 39.86 51.99 53.8l3.97 10.19h41.1l10.91-.03 3.98-10.15c5.49-13.97 26.82-53.83 52-53.83 11.87 0 27 3.99 49.21 33.6 18.58 24.786 65.67 80.81 82.54 100.8l-44.82 120.82q-.4.83-.82 1.66c-.87 1.72-1.79 3.4-2.73 5.07l23.3 23.3v0c2.92-4.54 5.6-9.22 8.02-14.04q.71-1.44 1.41-2.89l.3-.65 41.56-112.07v-39.76c-14.8-17.53-64.66-76.756-83.2-101.482Z"/><path d="M387.305 320.678l45.42-102.97 -100.94-45.12 -7.79 8.8c-.23.25-18.78 20.87-47.76 28.22l25.16 25.16v0c13.8-5.89 26.58-13.92 37.88-23.8l51.28 22.93 -27.57 62.47Z"/><path d="M16 16v21.94l77.2 77.207c-21.52 28.45-63.24 82.81-77.21 101v39.13l41.44 104.86 .43.99c.46.97.93 1.93 1.41 2.88l0-.001c12.79 25.43 32.49 46.74 56.86 61.47h0c24.31 14.73 52.2 22.51 80.63 22.5h118.45v0c28.42.01 56.31-7.77 80.63-22.5q2.39-1.45 4.71-2.99l73.48 73.48h21.94v-23.32L39.28 15.95Zm175.98 197.92l87.26 87.261 -.001 0c-42.04-1.22-84.11.85-125.82 6.19l-31.62-66.39 62.17-31.09Zm-29.2-29.2l-83.36 41.67 55.19 115.9 11.64-1.67 0 0c55.21-7.89 111.11-9.8 166.73-5.7l64.233 64.233v0c-18.82 10.98-40.21 16.79-62 16.83H196.75c-45.934 0-88.68-26.04-108.893-66.33q-.45-.9-.89-1.8L42.18 234.53c14.14-18.43 52.059-67.83 73.836-96.57Z"/></g></svg>
